symbols/web/volume_mute/materialsymbolsrounded/volume_mute_wght700gradN25fill1_24px.svg

<svg xmlns="http://www.w3.org/2000/svg" height="24" width="24"><path d="M7.825 15.7q-.625 0-1.062-.438-.438-.437-.438-1.062V9.8q0-.625.438-1.063Q7.2 8.3 7.825 8.3H10.7l3.45-3.425q.725-.725 1.637-.325.913.4.913 1.375V18.05q0 1-.913 1.388-.912.387-1.637-.313L10.7 15.7Z"/></svg>

<svg xmlns="http://www.w3.org/2000/svg" height="24" width="24"><path d="M7.825 15.7Q7.2 15.7 6.763 15.262Q6.325 14.825 6.325 14.2V9.8Q6.325 9.175 6.763 8.737Q7.2 8.3 7.825 8.3H10.7L14.15 4.875Q14.875 4.15 15.787 4.55Q16.7 4.95 16.7 5.925V18.05Q16.7 19.05 15.787 19.438Q14.875 19.825 14.15 19.125L10.7 15.7Z"/></svg>
